tools/download-figma-icons/icons/outlined-large/football.svg

<svg width="64" height="64" viewBox="0 0 64 64" fill="none" xmlns="http://www.w3.org/2000/svg">
<path fill-rule="evenodd" clip-rule="evenodd" d="M40.1853 58.89L42.9128 52.4459C43.2719 51.5907 44.139 51.0706 45.0602 51.1647L51.9534 51.8218C52.1674 51.8408 52.3404 51.9768 52.4135 52.1818C52.4845 52.3869 52.4355 52.5999 52.2794 52.7499C49.0719 55.8755 45.1202 58.2509 40.8534 59.6181C40.6444 59.6852 40.4304 59.6271 40.2853 59.4651C40.1373 59.3051 40.1003 59.09 40.1853 58.89ZM60.6769 30.534C60.4789 30.6381 60.2588 30.618 60.0848 30.478L54.8309 26.2603C54.1228 25.6912 53.8567 24.737 54.1688 23.8829L56.3361 17.9708C56.4122 17.7668 56.5862 17.6358 56.8032 17.6178C56.8202 17.6158 56.8352 17.6158 56.8512 17.6158C57.0483 17.6158 57.2203 17.7168 57.3193 17.8908C59.4377 21.6545 60.6649 25.7352 60.967 30.0179C60.983 30.238 60.8739 30.431 60.6769 30.534ZM40.1833 42.2801C39.9093 41.769 39.8563 41.1599 40.0393 40.6108L42.9678 31.8173C43.1688 31.2142 43.6239 30.7371 44.216 30.51L50.6441 28.0386C51.3463 27.7696 52.1444 27.8956 52.7285 28.3637C52.7285 28.3637 57.7514 32.3844 59.9738 34.1457C60.5619 34.6118 60.8609 35.3719 60.7529 36.128C60.1458 40.4548 58.5855 44.5035 56.1181 48.1641C55.676 48.8202 54.9229 49.1823 54.1378 49.0963C51.1702 48.7872 44.394 48.1271 44.393 48.1271C43.6869 48.0601 43.0648 47.647 42.7298 47.0219L40.1833 42.2801ZM22.0741 48.2221L25.6698 43.7474C26.0748 43.2443 26.6739 42.9572 27.318 42.9572H27.3441L36.0036 43.0622C36.7737 43.0722 37.4788 43.4993 37.8419 44.1774L40.3573 48.8643C40.6624 49.4304 40.6924 50.0945 40.4424 50.6896C40.4424 50.6896 37.8579 56.8357 36.7437 59.5491C36.4507 60.2623 35.7885 60.7603 35.0144 60.8514C33.9172 60.9774 32.911 61.0384 31.9369 61.0384C30.0475 61.0384 28.1082 60.8364 26.1698 60.4383C25.4097 60.2833 24.7906 59.7342 24.5576 59.006C23.6844 56.2886 21.7101 50.2005 21.7091 50.2005C21.489 49.5194 21.624 48.7802 22.0741 48.2221ZM4.09597 34.7918L11.2542 28.8407C11.6383 28.5207 12.1184 28.3507 12.6055 28.3507C12.8045 28.3507 13.0065 28.3787 13.2036 28.4377L19.5797 30.314C20.2498 30.51 20.7799 31.0241 20.9959 31.6892L23.6854 39.9657C23.9075 40.6478 23.7704 41.3879 23.3223 41.947L19.7237 46.4178C19.3186 46.9209 18.7185 47.207 18.0764 47.207H18.0494C18.0494 47.207 11.2952 47.1209 8.35372 47.0809C7.59159 47.0709 6.88446 46.6369 6.5104 45.9497C4.94812 43.0882 3.88894 40.0117 3.36584 36.8051C3.24082 36.041 3.52087 35.2709 4.09597 34.7918ZM19.7187 5.68167C20.0148 5.54265 20.3298 5.47464 20.6429 5.47464C21.082 5.47464 21.517 5.60966 21.8811 5.87271L29.1924 11.1436C29.7245 11.5277 30.0435 12.1218 30.0695 12.7759L30.3766 20.5223C30.4056 21.2344 30.0775 21.9065 29.4984 22.3216L22.6252 27.2735C22.0921 27.6585 21.423 27.7716 20.7909 27.5865L13.4986 25.4401C12.8695 25.2551 12.3704 24.8 12.1294 24.1909L8.93182 16.1185C8.65477 15.4174 8.77679 14.6082 9.25088 14.0041C12.0504 10.4535 15.67 7.576 19.7187 5.68167ZM54.2418 15.0943L50.9892 23.9659C50.7792 24.538 50.3331 24.9921 49.762 25.2121L43.4919 27.6235C42.8288 27.8766 42.0856 27.7846 41.5065 27.3735L34.2323 22.2096C33.7022 21.8335 33.3691 21.2194 33.3431 20.5683L33.0291 12.5959C33 11.9018 33.3161 11.2376 33.8722 10.8196L40.9874 5.47964C41.3565 5.20159 41.8056 5.05856 42.2617 5.05856C42.5447 5.05856 42.8318 5.11357 43.1008 5.22659C47.1965 6.93589 50.9092 9.60736 53.8347 12.9499C54.3538 13.5431 54.5088 14.3642 54.2418 15.0943ZM37.4468 4.43545L32.1039 8.44316C31.6378 8.79422 31.0037 8.80122 30.5326 8.45816L25.2817 4.67149C25.1037 4.54447 25.0236 4.33944 25.0677 4.1244C25.1107 3.91036 25.2617 3.75333 25.4737 3.70332C27.6081 3.20924 29.7815 2.95819 31.9329 2.95819C33.6632 2.95819 35.4435 3.13022 37.2258 3.47028C37.4408 3.51029 37.5999 3.66332 37.6489 3.87735C37.6999 4.09439 37.6239 4.30243 37.4468 4.43545ZM35.5375 40.0987L28.3262 40.0117C27.4181 39.9997 26.6209 39.4126 26.3399 38.5504L24.1045 31.6752C23.8204 30.7971 24.1315 29.8449 24.8806 29.3048L30.7146 25.1001C31.0837 24.832 31.5178 24.699 31.9529 24.699C32.3809 24.699 32.811 24.829 33.1781 25.0921L39.1051 29.3038C39.8683 29.8459 40.1823 30.8081 39.8863 31.6972L37.5699 38.6525C37.2778 39.5296 36.4557 40.0867 35.5375 40.0987ZM6.93947 19.133L9.19487 24.798C9.53393 25.6502 9.28588 26.6223 8.58076 27.2075L3.81992 31.1621C3.48786 31.4382 2.97377 31.1922 2.99278 30.7611C3.17781 26.7134 4.21299 22.7277 6.02431 19.087C6.21534 18.703 6.78044 18.735 6.93947 19.133ZM17.0652 50.1535C17.9724 50.1635 18.7725 50.7526 19.0526 51.6167L21.114 57.9579C21.181 58.1659 21.124 58.3779 20.9619 58.527C20.7969 58.675 20.5819 58.71 20.3818 58.623C16.3621 56.8827 12.7785 54.2352 9.91699 50.8976C9.63995 50.5736 9.88499 50.0685 10.3121 50.0735L17.0652 50.1535ZM63.9755 31.8193C63.9545 29.3468 63.6464 26.8754 63.0533 24.471C61.7251 19.081 58.9926 14.0611 55.1739 10.0314C53.7087 8.48516 52.0924 7.08392 50.3531 5.8557C46.1904 2.91319 41.3375 0.984847 36.2876 0.291725C29.8975 -0.585429 23.3153 0.529767 17.5653 3.44428C14.1717 5.16458 11.0902 7.48999 8.51175 10.2875C2.35367 16.9667 -0.629858 25.6562 0.111272 34.7558C0.551349 40.1617 2.40468 45.4126 5.44221 49.9074C8.42773 54.3242 12.5175 57.9719 17.2483 60.4303C22.9993 63.4188 29.6315 64.561 36.0576 63.7429C42.0696 62.9777 47.7996 60.4703 52.4555 56.5906C56.4352 53.274 59.5957 48.9973 61.5851 44.2124C63.2154 40.2917 64.0135 36.053 63.9755 31.8193Z" fill="black"/>
</svg>

<svg xmlns="http://www.w3.org/2000/svg" width="64" height="64" fill="none" viewBox="0 0 64 64"><path fill="currentColor" fill-rule="evenodd" d="m40.185 58.89 2.728-6.444a2.1 2.1 0 0 1 2.147-1.281l6.893.657a.53.53 0 0 1 .46.36.53.53 0 0 1-.134.568 29.24 29.24 0 0 1-11.426 6.868.53.53 0 0 1-.568-.153.525.525 0 0 1-.1-.575m20.492-28.356a.53.53 0 0 1-.592-.056L54.83 26.26a2.115 2.115 0 0 1-.662-2.377l2.167-5.912a.53.53 0 0 1 .467-.353l.048-.002a.53.53 0 0 1 .468.275 28.66 28.66 0 0 1 3.648 12.127.53.53 0 0 1-.29.516M40.183 42.28a2.13 2.13 0 0 1-.144-1.67l2.929-8.793a2.1 2.1 0 0 1 1.248-1.307l6.428-2.471a2.13 2.13 0 0 1 2.084.325s5.023 4.02 7.246 5.782c.588.466.887 1.226.779 1.982-.607 4.327-2.167 8.376-4.635 12.036a2.11 2.11 0 0 1-1.98.932 2179 2179 0 0 0-9.745-.969 2.11 2.11 0 0 1-1.663-1.105zm-18.109 5.942 3.596-4.475a2.1 2.1 0 0 1 1.648-.79h.026l8.66.105c.77.01 1.475.437 1.838 1.115l2.515 4.687c.305.566.335 1.23.085 1.826 0 0-2.584 6.146-3.698 8.86a2.13 2.13 0 0 1-1.73 1.301 27 27 0 0 1-3.077.187c-1.89 0-3.829-.202-5.767-.6a2.14 2.14 0 0 1-1.612-1.432c-.874-2.717-2.848-8.806-2.849-8.806a2.11 2.11 0 0 1 .365-1.978M4.096 34.792l7.158-5.951a2.11 2.11 0 0 1 1.95-.403l6.376 1.876c.67.196 1.2.71 1.416 1.375l2.69 8.277a2.11 2.11 0 0 1-.364 1.981l-3.598 4.47a2.1 2.1 0 0 1-1.648.79h-.027s-6.754-.086-9.695-.126A2.15 2.15 0 0 1 6.51 45.95a28.7 28.7 0 0 1-3.144-9.145 2.17 2.17 0 0 1 .73-2.013m15.623-29.11c.296-.14.61-.207.924-.207.439 0 .874.135 1.238.398l7.311 5.27c.532.385.852.979.878 1.633l.307 7.746c.029.712-.3 1.385-.879 1.8l-6.873 4.951a2.1 2.1 0 0 1-1.834.314l-7.292-2.147a2.1 2.1 0 0 1-1.37-1.25l-3.197-8.07a2.15 2.15 0 0 1 .319-2.115c2.8-3.55 6.419-6.428 10.468-8.322m34.523 9.412-3.253 8.872a2.12 2.12 0 0 1-1.227 1.246l-6.27 2.412a2.12 2.12 0 0 1-1.985-.25l-7.275-5.164a2.13 2.13 0 0 1-.889-1.642l-.314-7.972a2.11 2.11 0 0 1 .843-1.776l7.115-5.34a2.12 2.12 0 0 1 1.275-.421c.283 0 .57.055.839.168a29.4 29.4 0 0 1 10.734 7.723 2.14 2.14 0 0 1 .407 2.144M37.447 4.435l-5.343 4.008c-.466.351-1.1.358-1.571.015l-5.251-3.787a.53.53 0 0 1-.214-.547.53.53 0 0 1 .406-.42 28.7 28.7 0 0 1 6.459-.746c1.73 0 3.51.172 5.293.512.215.04.374.193.423.407a.53.53 0 0 1-.202.558M35.537 40.1l-7.21-.087a2.12 2.12 0 0 1-1.987-1.462l-2.235-6.875a2.11 2.11 0 0 1 .776-2.37l5.834-4.205a2.1 2.1 0 0 1 1.238-.401 2.1 2.1 0 0 1 1.225.393l5.927 4.212a2.105 2.105 0 0 1 .781 2.393l-2.316 6.956c-.292.877-1.114 1.434-2.032 1.446M6.94 19.133l2.256 5.665c.339.852.09 1.824-.614 2.41L3.82 31.162c-.332.276-.846.03-.827-.4a29.2 29.2 0 0 1 3.031-11.675c.191-.384.756-.352.915.046m10.126 31.02c.907.01 1.707.6 1.988 1.464l2.061 6.34c.067.209.01.42-.152.57a.53.53 0 0 1-.58.096 28.96 28.96 0 0 1-10.465-7.725c-.277-.324-.032-.83.395-.825zm46.91-18.334a31.8 31.8 0 0 0-.922-7.348 32.3 32.3 0 0 0-7.88-14.44 32.4 32.4 0 0 0-4.82-4.175A32 32 0 0 0 36.288.292a31.97 31.97 0 0 0-18.723 3.152 32 32 0 0 0-9.053 6.844C2.354 16.967-.63 25.656.112 34.756a31.76 31.76 0 0 0 5.33 15.151A32.3 32.3 0 0 0 17.248 60.43c5.751 2.989 12.383 4.131 18.81 3.313a32.04 32.04 0 0 0 16.398-7.152 32.35 32.35 0 0 0 9.13-12.379c1.63-3.92 2.427-8.159 2.39-12.393" clip-rule="evenodd"/></svg>
